X: 34
M:C|
L:1/8
K:D
vDFAd BAGF|Eeed cAA2|DFAd BAGF|GBAG FDD2|
dAdA dfed|cAeA fAeA|dAdA dfed|cdef d2d2|
dAdA dfed|cdef gfed|dBAG FAdB|AGFE D2D2||


